X:470
T:B470-  A Tory, a Whig, and a Moderate Man
Q:1/4=120
L:1/8
M:6/8
K:Em
d|e3/2f/g f3/2g/e|d3/2c/Bc2c/d/|c3/2B/c A3/2B/c|\
B3/2A/B G3/2A/B|A3/2G/A F3/2G/A|G2GE2B|e3/2f/g fge|\
^d2Be2f|g3/2a/g f2e|e2dc2B|c3/B/c A3/2B/c|\
B3/2A/BG2A|B3/2A/GF2E|(E3E2)e/f/|g3/2a/g d3/2e/d|\
g2cg2a|bagf2e|d2Bd2d|d(e/d/)cc2c|\
c(d/c/)BB2B|B(c/B/)AA2B/c/|d2FG2A|B3/2c/BA2G|\
(G3G2)g|g3/2f/fa2a|a3/2g/ab2b/a/|g3/2f/e ^d3/2c/B|\
g2gg2f|f2ff2e|g3/2a/gf2e|e2dc2B|\
c3/2B/c A3/2B/c|B3/2A/BG2A|B3/2A/GF2E|(E3E2)|]
